svg/color/eigen.svg

<svg width="64" height="65" viewBox="0 0 64 65" fill="none" xmlns="http://www.w3.org/2000/svg">
<rect y="0.303711" width="64" height="64" rx="32" fill="white"/>
<rect x="0.5" y="0.803711" width="63" height="63" rx="31.5" stroke="#070B14" stroke-opacity="0.15"/>
<path d="M25.2857 11.3037V42.0537H30.4286V31.8037H35.5714V42.0537H45.8571V52.3037H15V11.3037H25.2857Z" fill="#1A0C6D"/>
<path d="M45.8571 21.5537V31.8037H35.5714V16.4287H30.6343V11.3037H40.7143V21.5537H45.8571Z" fill="#1A0C6D"/>
<path d="M45.8571 21.5537V11.3037H51V21.5537H45.8571Z" fill="#1A0C6D"/>
</svg>

<svg xmlns="http://www.w3.org/2000/svg" width="64" height="65" fill="none" viewBox="0 0 64 65"><rect width="64" height="64" y=".304" fill="#fff" rx="32"/><rect width="63" height="63" x=".5" y=".804" stroke="#070B14" stroke-opacity=".15" rx="31.5"/><path fill="#1A0C6D" d="M25.286 11.304v30.75h5.143v-10.25h5.142v10.25h10.286v10.25H15v-41z"/><path fill="#1A0C6D" d="M45.857 21.554v10.25H35.571V16.429h-4.937v-5.125h10.08v10.25zm0 0v-10.25H51v10.25z"/></svg>
